!!!SOCIAL_FUNCTION:	songs connected with war and hunting
!!!PDT:	1932
!!!OTL: No_38_War_Bundle_Song.krn
!!!REG: Wisconsin
!!!LANG: Non-Tone
!!!LING_GROUP: Algonquin
**kern
*staff1
=1-
*clefF4
*k[f#]
*M2/4
[4d\
8d\L]
16.B\L
32A\JJk
=2
4A\
8A\L
8G\J
=3
4A\
8B\L
16.A\L
32G\JJk
=4
4G\
8G\L
8E\J
=5
4G\
8G\L
16.E\L
32D\JJk
=6
4D\
8D\
8r
=7
4A\
8B\L
16.A\L
32G\JJk
=8
4G\
8G\L
8E\J
=9
[4G\
8G\L]
16.E\L
32D\JJk
=10
4D\
8D\
8r
=11
[4D\
8D/L]
16.BB/L
32GG/JJk
=12
4GG/
8GG/
8r
=13
4GG/
8GG/L
8GG/J
=14
4GG/
8GG/
8r
==
*-
